X: 43406
T: Xylospongia
R: slide
M: 12/8
K: Adorian
e2 d||c2 A cBA c2 A e2 d|c2 A cBA G3 e2 d|
c2 A cBA c2 A e2 d|1 c2 A BAG A3 e2 d:|2 c2 A BAG A3 e2 f||
g3 g2 a g2 f e2 d|Bcd e2 f g3 f2 g|
a3 a2 b a2 g efg|a3 a2 g a3 e2 f|
g3 g2 a g2 f e2 d|Bcd e2 f g3 f2 g|
a2 b a2 g f2 e d2 g|e3 e2 d e3 e2 d||

